X:1
T:Sunlight
T:Sunlight
T:Winfield Scott Weeden
T:Judson Wheeler Van DeVenter, 1897
T:Public Domain Courtesy of the Cyber Hymnal™
T:Public Domain Courtesy of the Cyber Hymnal™
C:Winfield Scott Weeden
Z:Public Domain
Z:Courtesy of the Cyber Hymnal™
%%score ( 1 2 ) ( 3 4 )
L:1/8
Q:1/4=90
M:4/4
K:E
V:1 treble 
V:2 treble 
V:3 bass 
V:4 bass 
V:1
 B, | [B,E]>[B,E] [B,E]>[DF] [EG]>[EG] [EG]>[FA] | [GB]>[GB] [GB]>[Ac] [GB]3 [GB] | %3
w: 1.~I|wan- dered in the shades of night, Till|Je- sus came to me, And|
w: 2.~Tho’|clouds may ga- ther in the sky, And|bil- lows round me roll, How-|
w: 3.~While|walk- ing in the light of God, I|sweet com- mun- ion find; How-|
w: 4.~I|cross the wide ex- tend- ed fields, I|jour- ney o’er the plain, And|
w: 5.~Soon|I shall see Him as He is, The|Light that came to me; Be-|
 [Ac]>[Ac] A>[Ac] [GB]>[GB] [GB]>[EG] | [DF]>[DB] [Fd]>[Ec] [DB]4{cd} || %5
w: with the sun- light of His love Bid|all my dark- ness flee.|
w: ev- er dark the world may be I’ve|sun- light in my soul.|
w: ev- er dark the world may be, I’ve|sun- light in my soul.|
w: in the sun- light of His love I|reap the gold- en grain.|
w: hold the bright- ness of His face, Through-|out e- ter- ni- ty.|
"^Refrain" [Ge]2 [Gd]2 [Gc]2 [GB]2 | [DA]>[DA] [DA]>[DA] [DA]4 | [Dd]2 [Dc]2 [DB]2 [DA]2 | %8
w: |||
w: |||
w: Sun- light, sun- light|in my soul to- day,|Sun- light, sun- light|
w: |||
w: |||
 [EG]>[FA] [GB]>[Ac] [GB]4 | [EG]>[DF] [EG]>[FA] [GB]2 [Gc]2 | [Ad]>[Ad] [Ad]>[Ad] d4 | %11
w: |||
w: |||
w: all a- long the way;|Since the Sav- ior found me,|took a- way my sin,|
w: |||
w: |||
 [Ge]>[Ge] [Gd]>[Gc] [GB]>[Ac] [GB]>[FA] | [EG]2 [DF]2 !fermata!E3 |] %13
w: ||
w: ||
w: I have had the sun- light of His|love with- in.|
w: ||
w: ||
V:2
 B, | x8 | x8 | x8 | x8 || x8 | x8 | x8 | x8 | x8 | x4 (F>G A2) | x8 | x4 E3 |] %13
V:3
 [E,G,] | [E,G,]>[E,G,] [E,G,]>[E,A,] [E,B,]>[E,B,] [E,B,]>[E,B,] | %2
 [E,E]>[E,E] [E,E]>[E,E] [E,E]3 [E,E] | [A,E]>[A,E] [A,C]>[A,E] [E,E]>[E,E] [E,E]>[E,B,] | %4
 [F,B,]>[F,B,] [F,^A,]>[F,A,] [B,,B,]4 || [E,B,]2 [E,B,]2 [E,B,]2 [E,B,]2 | %6
 [F,B,]>[F,B,] [F,B,]>[F,B,] B,4 | [B,,F,]2 [B,,A,]2 [B,,F,]2 [B,,B,]2 | %8
 [E,B,]>[E,B,] [E,E]>[E,E] (E>B, G,2) | [E,B,]>[E,B,] [E,B,]>[E,B,] [E,E]2 [E,B,]2 | %10
 [B,,B,]>[B,,B,] [B,,B,]>[B,,B,] [B,,B,]4 | [E,B,]>[E,B,] [E,B,]>[E,B,] [E,E]>[E,E] [E,E]>[A,,C] | %12
 [B,,B,]2 [B,,A,]2 !fermata![E,G,]3 |] %13
V:4
 x | x8 | x8 | x8 | x8 || x8 | x4 (F,>B,F,D,) | x8 | x4 E,4 | x8 | x8 | x8 | x7 |] %13

